TRatioPlot/r2.svg

<svg xmlns="http://www.w3.org/2000/svg" viewBox="0 0 1200 800" preserveAspectRatio="none" width="1200" height="800">
 <title>
  ROOT canvas
 </title>
 <rect x="0" y="0" width="1200" height="800" style="fill: white;"></rect>
 <g>
  <svg viewBox="0 0 1194 558" preserveAspectRatio="none" x="3" y="2" width="1194" height="558">
   <rect x="0" y="0" width="1194" height="558" style="fill: white;"></rect>
   <g>
    <g transform="translate(119,56)">
     <title></title>
     <rect x="0" y="0" width="955" height="474" style="fill: white; stroke: black; stroke-width: 1;"></rect>
     <svg x="0" y="0" overflow="hidden" width="955" height="474" viewBox="0 0 955 474">
      <g>
       <path d="M0,474h57v-3h19v3h58v-3h19v3h19v-3h19v-2h19v-11h57v-47h20v-2h19v-21h19v-55h19v-52h19v-26h19v-63h19v-44h19v2h19v-75h19v-52h20v28h19v21h19v-5h19v94h19v55h19v49h19v58h19v23h19v24h19v28h20v26h19v13h19v19h19v2h19v8h19v5h19v3h19v-5h19v5h39v-3h19v3h76" style="stroke-linejoin: miter; stroke: rgb(0,0,154); stroke-width: 1; fill: none;"></path>
      </g>
      <g>
       <path d="M0,474c1.59,0,6.37,0,9.55,0s6.37,0,9.55,0s6.37,0,9.55,0s6.37,0,9.55,0s6.37,0,9.55,-0.01s6.37,0,9.55,-0.01s6.37,-0.01,9.55,-0.01s6.37,-0.01,9.55,-0.02s6.37,-0.02,9.55,-0.03s6.37,-0.02,9.55,-0.04s6.37,-0.04,9.55,-0.06s6.37,-0.05,9.55,-0.09s6.37,-0.07,9.55,-0.12s6.37,-0.11,9.55,-0.18s6.37,-0.15,9.55,-0.25s6.37,-0.21,9.55,-0.34s6.38,-0.29,9.55,-0.47s6.39,-0.39,9.55,-0.64s6.4,-0.53,9.55,-0.85s6.43,-0.71,9.55,-1.13s6.47,-0.94,9.55,-1.49s6.53,-1.23,9.55,-1.93s6.62,-1.61,9.55,-2.47s6.75,-2.1,9.55,-3.13s6.92,-2.72,9.55,-3.93s7.14,-3.5,9.55,-4.86s7.39,-4.46,9.55,-5.95s7.66,-5.63,9.55,-7.2s7.93,-7.01,9.55,-8.6s8.18,-8.57,9.55,-10.15s8.4,-10.3,9.55,-11.83s8.59,-12.15,9.55,-13.62s8.74,-14.08,9.55,-15.47s8.87,-16.03,9.55,-17.34s8.96,-17.93,9.55,-19.17s9.03,-19.72,9.55,-20.89s9.08,-21.31,9.55,-22.44s9.12,-22.63,9.55,-23.72s9.14,-23.61,9.55,-24.67s9.15,-24.15,9.55,-25.21s9.15,-24.21,9.55,-25.27s9.12,-23.72,9.55,-24.8s9.08,-22.64,9.55,-23.77s9.01,-20.96,9.55,-22.16s8.89,-18.68,9.55,-19.98s8.69,-15.83,9.55,-17.25s8.34,-12.49,9.55,-14.04s7.77,-8.84,9.55,-10.42s6.93,-5.28,9.55,-6.49s6.37,-2.28,9.55,-2.37s6.82,0.71,9.55,1.82s7.67,4.39,9.55,5.96s8.28,8.36,9.55,9.92s8.65,12.15,9.55,13.58s8.87,15.54,9.55,16.85s8.99,18.44,9.55,19.64s9.07,20.77,9.55,21.9s9.12,22.5,9.55,23.59s9.14,23.64,9.55,24.7s9.15,24.19,9.55,25.24s9.14,24.18,9.55,25.24s9.12,23.68,9.55,24.77s9.09,22.75,9.55,23.87s9.04,21.45,9.55,22.62s8.97,19.88,9.55,21.11s8.88,18.11,9.55,19.4s8.76,16.21,9.55,17.58s8.61,14.26,9.55,15.71s8.43,12.34,9.55,13.86s8.21,10.49,9.55,12.06s7.96,8.77,9.55,10.36s7.7,7.23,9.55,8.8s7.42,5.87,9.55,7.37s7.17,4.72,9.55,6.11s6.95,3.77,9.55,5s6.77,2.98,9.55,4.04s6.63,2.35,9.55,3.23s6.54,1.84,9.55,2.55s6.47,1.42,9.55,1.99s6.43,1.1,9.55,1.54s6.4,0.84,9.55,1.18s6.39,0.63,9.55,0.89s6.38,0.47,9.55,0.66s6.37,0.35,9.55,0.49s6.37,0.26,9.55,0.36s6.37,0.18,9.55,0.26s6.37,0.13,9.55,0.18s6.37,0.09,9.55,0.13s6.37,0.07,9.55,0.09s6.37,0.05,9.55,0.06s6.37,0.03,9.55,0.04s6.37,0.02,9.55,0.03s6.37,0.01,9.55,0.02s6.37,0.01,9.55,0.01s6.37,0.01,9.55,0.01s6.37,0,9.55,0.01s6.37,0,9.55,0s6.37,0,9.55,0s6.37,0,9.55,0s7.96,0,9.55,0" style="fill: none; stroke: red; stroke-width: 2;"></path>
      </g>
     </svg>
     <g>
      <g transform="translate(0,474)">
       <line x1="0" y1="0" x2="955" y2="0" style="stroke: black; stroke-width: 1;"></line>
       <path d="M0,-9v9m48,-9v9m48,-17v17m47,-9v9m48,-9v9m48,-9v9m48,-17v17m47,-9v9m48,-9v9m48,-9v9m48,-17v17m47,-9v9m48,-9v9m48,-9v9m48,-17v17m47,-9v9m48,-9v9m48,-9v9m48,-17v17m47,-9v9m48,-9v9" style="stroke: black; stroke-width: 1;"></path>
      </g>
      <g>
       <line x1="0" y1="0" x2="0" y2="474" style="stroke: black; stroke-width: 1;"></line>
       <path d="M36,474h-36m18,-13h-18m18,-13h-18m18,-13h-18m36,-13h-36m18,-13h-18m18,-13h-18m18,-13h-18m36,-13h-36m18,-13h-18m18,-13h-18m18,-14h-18m36,-13h-36m18,-13h-18m18,-13h-18m18,-13h-18m36,-13h-36m18,-13h-18m18,-13h-18m18,-13h-18m36,-13h-36m18,-13h-18m18,-13h-18m18,-13h-18m36,-13h-36m18,-13h-18m18,-13h-18m18,-13h-18m36,-13h-36m18,-13h-18m18,-13h-18m18,-13h-18m36,-14h-36m18,-13h-18m18,-13h-18m18,-13h-18m36,-13h-36" style="stroke: black; stroke-width: 1;"></path>
       <path d="M919,474h36m-18,-13h18m-18,-13h18m-18,-13h18m-36,-13h36m-18,-13h18m-18,-13h18m-18,-13h18m-36,-13h36m-18,-13h18m-18,-13h18m-18,-14h18m-36,-13h36m-18,-13h18m-18,-13h18m-18,-13h18m-36,-13h36m-18,-13h18m-18,-13h18m-18,-13h18m-36,-13h36m-18,-13h18m-18,-13h18m-18,-13h18m-36,-13h36m-18,-13h18m-18,-13h18m-18,-13h18m-36,-13h36m-18,-13h18m-18,-13h18m-18,-13h18m-36,-14h36m-18,-13h18m-18,-13h18m-18,-13h18m-36,-13h36" style="stroke: black; stroke-width: 1;"></path>
       <g font-family="Arial" font-size="20" space="preserve">
        <text fill="black" text-anchor="end" dy=".4em" transform="translate(-3,474)">
         0
        </text>
        <text fill="black" text-anchor="end" dy=".4em" transform="translate(-3,422)">
         20
        </text>
        <text fill="black" text-anchor="end" dy=".4em" transform="translate(-3,370)">
         40
        </text>
        <text fill="black" text-anchor="end" dy=".4em" transform="translate(-3,317)">
         60
        </text>
        <text fill="black" text-anchor="end" dy=".4em" transform="translate(-3,265)">
         80
        </text>
        <text fill="black" text-anchor="end" dy=".4em" transform="translate(-3,213)">
         100
        </text>
        <text fill="black" text-anchor="end" dy=".4em" transform="translate(-3,161)">
         120
        </text>
        <text fill="black" text-anchor="end" dy=".4em" transform="translate(-3,109)">
         140
        </text>
        <text fill="black" text-anchor="end" dy=".4em" transform="translate(-3,56)">
         160
        </text>
        <text fill="black" text-anchor="end" dy=".4em" transform="translate(-3,4)">
         180
        </text>
       </g>
       <g font-family="Arial" font-size="20" space="preserve" transform="translate(-49,0)">
        <text fill="black" text-anchor="end" dy=".4em" transform=" rotate(270)">
         entries
        </text>
       </g>
      </g>
     </g>
    </g>
    <g transform="translate(119,3)" font-family="Arial" font-size="28" space="preserve">
     <path d="M0,0h955v37h-955z" style="fill: none;"></path>
     <text fill="black" text-anchor="middle" dy=".8em" transform="translate(478,0)">
      h1
     </text>
    </g>
   </g>
  </svg>
  <svg viewBox="0 0 1194 238" preserveAspectRatio="none" x="3" y="560" width="1194" height="238">
   <rect x="0" y="0" width="1194" height="238" style="fill: white;"></rect>
   <g>
    <g transform="translate(119,12)">
     <title></title>
     <rect x="0" y="0" width="955" height="155" style="fill: white; stroke: black; stroke-width: 1;"></rect>
     <svg x="0" y="0" overflow="hidden" width="955" height="155" viewBox="0 0 955 155">
      <g>
       <path d="M86,79l76,13l39,24l19,3l19,-6l19,13l19,16l19,-24l19,8h19l19,-5l19,-2l20,2l19,-1l19,1l19,4l19,-3l19,-3l19,-1l19,-2l19,-4l19,2h20l19,1l19,2l19,-2l19,-3l19,-2l19,-2l19,-5l19,-1l19,-7l20,-2h19l38,-12l57,-3L888,77l-57,-3l-38,-12h-19l-20,-2l-19,-7l-19,-1l-19,-5l-19,-2l-19,-2l-19,-3l-19,-2l-19,2l-19,1h-20l-19,2l-19,-4l-19,-2l-19,-1l-19,-3l-19,-3l-19,4l-19,1l-19,-1l-20,2l-19,-2l-19,-5h-19l-19,8l-19,-24l-19,16l-19,13l-19,-6l-19,3l-39,24l-76,13Z" style="stroke: none; fill: rgb(0,255,0);"></path>
      </g>
      <g>
       <path d="M86,78l76,7l39,12l19,1l19,-3l19,7l19,8l19,-12l19,4h19l19,-3l19,-1l20,1h19h19l19,2l19,-1l19,-2h19l19,-1l19,-2l19,1h20h19l19,1l19,-1l19,-1l19,-1l19,-1l19,-3h19l19,-4l20,-1h19l38,-6l57,-1L888,77l-57,-1l-38,-6h-19l-20,-1l-19,-4h-19l-19,-3l-19,-1l-19,-1l-19,-1l-19,-1l-19,1h-19h-20l-19,1l-19,-2l-19,-1h-19l-19,-2l-19,-1l-19,2h-19h-19l-20,1l-19,-1l-19,-3h-19l-19,4l-19,-12l-19,8l-19,7l-19,-3l-19,1l-39,12l-76,7Z" style="stroke: none; fill: rgb(255,255,0);"></path>
      </g>
      <g>
       <path d="M67,17l76,18l38,55l20,-4l19,-61l19,67l19,104l19,-209l19,93l19,33l19,-66l19,-20l19,60l20,-28l19,10l19,94l19,-92l19,-63l19,52l19,9l19,-67l19,101l19,18l20,3l19,35l19,-61l19,-48l19,-8l19,11l19,-23l19,43l19,-45l19,24l20,41l38,-88l57,13" style="stroke: black; stroke-width: 1; fill: none;"></path>
      </g>
     </svg>
     <g>
      <g transform="translate(0,155)">
       <line x1="0" y1="0" x2="955" y2="0" style="stroke: black; stroke-width: 1;"></line>
       <path d="M0,-4v4m48,-4v4m48,-7v7m47,-4v4m48,-4v4m48,-4v4m48,-7v7m47,-4v4m48,-4v4m48,-4v4m48,-7v7m47,-4v4m48,-4v4m48,-4v4m48,-7v7m47,-4v4m48,-4v4m48,-4v4m48,-7v7m47,-4v4m48,-4v4" style="stroke: black; stroke-width: 1;"></path>
       <g font-family="Arial" font-size="20" space="preserve">
        <text fill="black" text-anchor="middle" dy=".8em" transform="translate(96,3)">
         -4
        </text>
        <text fill="black" text-anchor="middle" dy=".8em" transform="translate(287,3)">
         -2
        </text>
        <text fill="black" text-anchor="middle" dy=".8em" transform="translate(478,3)">
         0
        </text>
        <text fill="black" text-anchor="middle" dy=".8em" transform="translate(669,3)">
         2
        </text>
        <text fill="black" text-anchor="middle" dy=".8em" transform="translate(860,3)">
         4
        </text>
       </g>
       <g font-family="Arial" font-size="20" space="preserve" transform="translate(955,32)">
        <text fill="black" text-anchor="end" dy=".4em">
         x
        </text>
       </g>
      </g>
      <g>
       <line x1="0" y1="0" x2="0" y2="155" style="stroke: black; stroke-width: 1;"></line>
       <path d="M18,151h-18m18,-6h-18m36,-6h-36m18,-6h-18m18,-6h-18m18,-7h-18m18,-6h-18m36,-6h-36m18,-6h-18m18,-6h-18m18,-6h-18m18,-6h-18m36,-6h-36m18,-7h-18m18,-6h-18m18,-6h-18m18,-6h-18m36,-6h-36m18,-6h-18m18,-6h-18m18,-7h-18m18,-6h-18m36,-6h-36m18,-6h-18m18,-6h-18" style="stroke: black; stroke-width: 1;"></path>
       <path d="M937,151h18m-18,-6h18m-36,-6h36m-18,-6h18m-18,-6h18m-18,-7h18m-18,-6h18m-36,-6h36m-18,-6h18m-18,-6h18m-18,-6h18m-18,-6h18m-36,-6h36m-18,-7h18m-18,-6h18m-18,-6h18m-18,-6h18m-36,-6h36m-18,-6h18m-18,-6h18m-18,-7h18m-18,-6h18m-36,-6h36m-18,-6h18m-18,-6h18" style="stroke: black; stroke-width: 1;"></path>
       <g font-family="Arial" font-size="20" space="preserve">
        <text fill="black" text-anchor="end" dy=".4em" transform="translate(-1,139)">
         -1
        </text>
        <text fill="black" text-anchor="end" dy=".4em" transform="translate(-1,108)">
         -0.5
        </text>
        <text fill="black" text-anchor="end" dy=".4em" transform="translate(-1,78)">
         0
        </text>
        <text fill="black" text-anchor="end" dy=".4em" transform="translate(-1,47)">
         0.5
        </text>
        <text fill="black" text-anchor="end" dy=".4em" transform="translate(-1,16)">
         1
        </text>
       </g>
       <g font-family="Arial" font-size="20" space="preserve" transform="translate(-58,0)">
        <text fill="black" text-anchor="end" dy=".4em" transform=" rotate(270)">
         ratio
        </text>
       </g>
      </g>
     </g>
    </g>
    <g>
     <line x1="119" y1="28" x2="1075" y2="28" style="stroke: black; stroke-width: 1; stroke-dasharray: 3,3;"></line>
    </g>
    <g>
     <line x1="119" y1="89" x2="1075" y2="89" style="stroke: black; stroke-width: 1; stroke-dasharray: 3,3;"></line>
    </g>
    <g>
     <line x1="119" y1="150" x2="1075" y2="150" style="stroke: black; stroke-width: 1; stroke-dasharray: 3,3;"></line>
    </g>
   </g>
  </svg>
  <svg viewBox="0 0 1194 796" preserveAspectRatio="none" x="3" y="2" width="1194" height="796" display="none">
   <rect x="0" y="0" width="1194" height="796" style="fill: white; opacity: 0;"></rect>
  </svg>
 </g>
</svg>

<svg xmlns="http://www.w3.org/2000/svg" viewBox="0 0 1200 800" preserveAspectRatio="none" width="1200" height="800">
 <title>
  ROOT canvas
 </title>
 <rect x="0" y="0" width="1200" height="800" style="fill: white;"></rect>
 <g>
  <svg viewBox="0 0 1194 558" preserveAspectRatio="none" x="3" y="2" width="1194" height="558">
   <rect x="0" y="0" width="1194" height="558" style="fill: white;"></rect>
   <g>
    <g transform="translate(119,56)">
     <title></title>
     <rect x="0" y="0" width="955" height="474" style="fill: white; stroke: black; stroke-width: 1;"></rect>
     <svg x="0" y="0" overflow="hidden" width="955" height="474" viewBox="0 0 955 474">
      <g>
       <path d="M0,474h57v-3h19v3h58v-3h19v3h19v-3h19v-2h19v-11h57v-47h20v-2h19v-21h19v-55h19v-52h19v-26h19v-63h19v-44h19v2h19v-75h19v-52h20v28h19v21h19v-5h19v94h19v55h19v49h19v58h19v23h19v24h19v28h20v26h19v13h19v19h19v2h19v8h19v5h19v3h19v-5h19v5h39v-3h19v3h76" style="stroke-linejoin: miter; stroke: rgb(0,0,154); stroke-width: 1; fill: none;"></path>
      </g>
      <g>
       <path d="M0,474C1.59,474,6.37,474,9.55,474S15.92,474,19.1,474S25.47,474,28.65,473.99S35.02,473.99,38.2,473.99S44.57,473.99,47.75,473.99S54.12,473.98,57.3,473.98S63.67,473.97,66.85,473.97S73.22,473.95,76.4,473.95S82.77,473.93,85.95,473.92S92.32,473.89,95.5,473.88S101.87,473.84,105.05,473.82S111.42,473.77,114.6,473.73S120.97,473.66,124.15,473.61S130.52,473.5,133.7,473.43S140.07,473.28,143.25,473.18S149.62,472.97,152.8,472.84S159.18,472.55,162.35,472.37S168.74,471.98,171.9,471.73S178.3,471.2,181.45,470.88S187.88,470.17,191,469.74S197.47,468.81,200.55,468.26S207.08,467.02,210.1,466.33S216.72,464.72,219.65,463.86S226.4,461.76,229.2,460.72S236.12,458.01,238.75,456.8S245.89,453.3,248.3,451.94S255.69,447.47,257.85,445.99S265.51,440.35,267.4,438.79S275.33,431.78,276.95,430.19S285.13,421.62,286.5,420.04S294.9,409.74,296.05,408.21S304.64,396.06,305.6,394.6S314.34,380.52,315.15,379.13S324.02,363.1,324.7,361.79S333.66,343.86,334.25,342.63S343.28,322.91,343.8,321.73S352.88,300.42,353.35,299.3S362.47,276.66,362.9,275.58S372.04,251.97,372.45,250.91S381.6,226.75,382,225.7S391.15,201.49,391.55,200.43S400.67,176.71,401.1,175.63S410.18,152.98,410.65,151.85S419.66,130.89,420.2,129.69S429.09,111.01,429.75,109.72S438.44,93.88,439.3,92.47S447.64,79.97,448.85,78.43S456.62,69.59,458.4,68.01S465.33,62.73,467.95,61.52S474.32,59.24,477.5,59.14S484.32,59.85,487.05,60.96S494.72,65.36,496.6,66.92S504.88,75.28,506.15,76.84S514.8,88.98,515.7,90.41S524.57,105.96,525.25,107.26S534.24,125.7,534.8,126.91S543.87,147.68,544.35,148.81S553.47,171.32,553.9,172.4S563.04,196.04,563.45,197.11S572.6,221.29,573,222.35S582.14,246.53,582.55,247.59S591.67,271.27,592.1,272.36S601.19,295.1,601.65,296.22S610.69,317.68,611.2,318.85S620.17,338.73,620.75,339.95S629.63,358.06,630.3,359.36S639.06,375.57,639.85,376.94S648.46,391.21,649.4,392.66S657.83,404.99,658.95,406.51S667.16,417,668.5,418.58S676.46,427.35,678.05,428.94S685.75,436.17,687.6,437.74S695.02,443.61,697.15,445.11S704.32,449.83,706.7,451.21S713.65,454.98,716.25,456.21S723.02,459.19,725.8,460.25S732.43,462.6,735.35,463.48S741.89,465.32,744.9,466.03S751.37,467.46,754.45,468.03S760.88,469.12,764,469.57S770.4,470.4,773.55,470.74S779.94,471.38,783.1,471.63S789.48,472.1,792.65,472.3S799.02,472.64,802.2,472.79S808.57,473.04,811.75,473.14S818.12,473.33,821.3,473.4S827.67,473.53,830.85,473.59S837.22,473.68,840.4,473.72S846.77,473.78,849.95,473.81S856.32,473.85,859.5,473.87S865.87,473.9,869.05,473.91S875.42,473.94,878.6,473.94S884.97,473.96,888.15,473.96S894.52,473.97,897.7,473.98S904.07,473.98,907.25,473.99S913.62,473.99,916.8,473.99S923.17,473.99,926.35,473.99S932.72,474,935.9,474S942.27,474,945.45,474S953.41,474,955,474" style="fill: none; stroke: red; stroke-width: 2;"></path>
      </g>
     </svg>
     <g>
      <g transform="translate(0,474)">
       <line x1="0" y1="0" x2="955" y2="0" style="stroke: black; stroke-width: 1;"></line>
       <path d="M0,-9v9m48,-9v9m48,-17v17m47,-9v9m48,-9v9m48,-9v9m48,-17v17m47,-9v9m48,-9v9m48,-9v9m48,-17v17m47,-9v9m48,-9v9m48,-9v9m48,-17v17m47,-9v9m48,-9v9m48,-9v9m48,-17v17m47,-9v9m48,-9v9" style="stroke: black; stroke-width: 1;"></path>
      </g>
      <g>
       <line x1="0" y1="0" x2="0" y2="474" style="stroke: black; stroke-width: 1;"></line>
       <path d="M36,474h-36m18,-13h-18m18,-13h-18m18,-13h-18m36,-13h-36m18,-13h-18m18,-13h-18m18,-13h-18m36,-13h-36m18,-13h-18m18,-13h-18m18,-14h-18m36,-13h-36m18,-13h-18m18,-13h-18m18,-13h-18m36,-13h-36m18,-13h-18m18,-13h-18m18,-13h-18m36,-13h-36m18,-13h-18m18,-13h-18m18,-13h-18m36,-13h-36m18,-13h-18m18,-13h-18m18,-13h-18m36,-13h-36m18,-13h-18m18,-13h-18m18,-13h-18m36,-14h-36m18,-13h-18m18,-13h-18m18,-13h-18m36,-13h-36" style="stroke: black; stroke-width: 1;"></path>
       <path d="M919,474h36m-18,-13h18m-18,-13h18m-18,-13h18m-36,-13h36m-18,-13h18m-18,-13h18m-18,-13h18m-36,-13h36m-18,-13h18m-18,-13h18m-18,-14h18m-36,-13h36m-18,-13h18m-18,-13h18m-18,-13h18m-36,-13h36m-18,-13h18m-18,-13h18m-18,-13h18m-36,-13h36m-18,-13h18m-18,-13h18m-18,-13h18m-36,-13h36m-18,-13h18m-18,-13h18m-18,-13h18m-36,-13h36m-18,-13h18m-18,-13h18m-18,-13h18m-36,-14h36m-18,-13h18m-18,-13h18m-18,-13h18m-36,-13h36" style="stroke: black; stroke-width: 1;"></path>
       <g font-family="Arial" font-size="20" space="preserve">
        <text fill="black" text-anchor="end" dy=".4em" transform="translate(-3,474)">
         0
        </text>
        <text fill="black" text-anchor="end" dy=".4em" transform="translate(-3,422)">
         20
        </text>
        <text fill="black" text-anchor="end" dy=".4em" transform="translate(-3,370)">
         40
        </text>
        <text fill="black" text-anchor="end" dy=".4em" transform="translate(-3,317)">
         60
        </text>
        <text fill="black" text-anchor="end" dy=".4em" transform="translate(-3,265)">
         80
        </text>
        <text fill="black" text-anchor="end" dy=".4em" transform="translate(-3,213)">
         100
        </text>
        <text fill="black" text-anchor="end" dy=".4em" transform="translate(-3,161)">
         120
        </text>
        <text fill="black" text-anchor="end" dy=".4em" transform="translate(-3,109)">
         140
        </text>
        <text fill="black" text-anchor="end" dy=".4em" transform="translate(-3,56)">
         160
        </text>
        <text fill="black" text-anchor="end" dy=".4em" transform="translate(-3,4)">
         180
        </text>
       </g>
       <g font-family="Arial" font-size="20" space="preserve" transform="translate(-49,0)">
        <text fill="black" text-anchor="end" dy=".4em" transform=" rotate(270)">
         entries
        </text>
       </g>
      </g>
     </g>
    </g>
    <g transform="translate(119,3)" font-family="Arial" font-size="28" space="preserve">
     <path d="M0,0h955v37h-955z" style="fill: none;"></path>
     <text fill="black" text-anchor="middle" dy=".8em" transform="translate(478,0)">
      h1
     </text>
    </g>
   </g>
  </svg>
  <svg viewBox="0 0 1194 238" preserveAspectRatio="none" x="3" y="560" width="1194" height="238">
   <rect x="0" y="0" width="1194" height="238" style="fill: white;"></rect>
   <g>
    <g transform="translate(119,12)">
     <title></title>
     <rect x="0" y="0" width="955" height="155" style="fill: white; stroke: black; stroke-width: 1;"></rect>
     <svg x="0" y="0" overflow="hidden" width="955" height="155" viewBox="0 0 955 155">
      <g>
       <path d="M86,79l76,13l39,24l19,3l19,-6l19,13l19,16l19,-24l19,8h19l19,-5l19,-2l20,2l19,-1l19,1l19,4l19,-3l19,-3l19,-1l19,-2l19,-4l19,2h20l19,1l19,2l19,-2l19,-3l19,-2l19,-2l19,-5l19,-1l19,-7l20,-2h19l38,-12l57,-3L888,77l-57,-3l-38,-12h-19l-20,-2l-19,-7l-19,-1l-19,-5l-19,-2l-19,-2l-19,-3l-19,-2l-19,2l-19,1h-20l-19,2l-19,-4l-19,-2l-19,-1l-19,-3l-19,-3l-19,4l-19,1l-19,-1l-20,2l-19,-2l-19,-5h-19l-19,8l-19,-24l-19,16l-19,13l-19,-6l-19,3l-39,24l-76,13Z" style="stroke: none; fill: rgb(0,255,0);"></path>
      </g>
      <g>
       <path d="M86,78l76,7l39,12l19,1l19,-3l19,7l19,8l19,-12l19,4h19l19,-3l19,-1l20,1h19h19l19,2l19,-1l19,-2h19l19,-1l19,-2l19,1h20h19l19,1l19,-1l19,-1l19,-1l19,-1l19,-3h19l19,-4l20,-1h19l38,-6l57,-1L888,77l-57,-1l-38,-6h-19l-20,-1l-19,-4h-19l-19,-3l-19,-1l-19,-1l-19,-1l-19,-1l-19,1h-19h-20l-19,1l-19,-2l-19,-1h-19l-19,-2l-19,-1l-19,2h-19h-19l-20,1l-19,-1l-19,-3h-19l-19,4l-19,-12l-19,8l-19,7l-19,-3l-19,1l-39,12l-76,7Z" style="stroke: none; fill: rgb(255,255,0);"></path>
      </g>
      <g>
       <path d="M67,17l76,18l38,55l20,-4l19,-61l19,67l19,104l19,-209l19,93l19,33l19,-66l19,-20l19,60l20,-28l19,10l19,94l19,-92l19,-63l19,52l19,9l19,-67l19,101l19,18l20,3l19,35l19,-61l19,-48l19,-8l19,11l19,-23l19,43l19,-45l19,24l20,41l38,-88l57,13" style="stroke: black; stroke-width: 1; fill: none;"></path>
      </g>
     </svg>
     <g>
      <g transform="translate(0,155)">
       <line x1="0" y1="0" x2="955" y2="0" style="stroke: black; stroke-width: 1;"></line>
       <path d="M0,-4v4m48,-4v4m48,-7v7m47,-4v4m48,-4v4m48,-4v4m48,-7v7m47,-4v4m48,-4v4m48,-4v4m48,-7v7m47,-4v4m48,-4v4m48,-4v4m48,-7v7m47,-4v4m48,-4v4m48,-4v4m48,-7v7m47,-4v4m48,-4v4" style="stroke: black; stroke-width: 1;"></path>
       <g font-family="Arial" font-size="20" space="preserve">
        <text fill="black" text-anchor="middle" dy=".8em" transform="translate(96,3)">
         -4
        </text>
        <text fill="black" text-anchor="middle" dy=".8em" transform="translate(287,3)">
         -2
        </text>
        <text fill="black" text-anchor="middle" dy=".8em" transform="translate(478,3)">
         0
        </text>
        <text fill="black" text-anchor="middle" dy=".8em" transform="translate(669,3)">
         2
        </text>
        <text fill="black" text-anchor="middle" dy=".8em" transform="translate(860,3)">
         4
        </text>
       </g>
       <g font-family="Arial" font-size="20" space="preserve" transform="translate(955,32)">
        <text fill="black" text-anchor="end" dy=".4em">
         x
        </text>
       </g>
      </g>
      <g>
       <line x1="0" y1="0" x2="0" y2="155" style="stroke: black; stroke-width: 1;"></line>
       <path d="M18,151h-18m18,-6h-18m36,-6h-36m18,-6h-18m18,-6h-18m18,-7h-18m18,-6h-18m36,-6h-36m18,-6h-18m18,-6h-18m18,-6h-18m18,-6h-18m36,-6h-36m18,-7h-18m18,-6h-18m18,-6h-18m18,-6h-18m36,-6h-36m18,-6h-18m18,-6h-18m18,-7h-18m18,-6h-18m36,-6h-36m18,-6h-18m18,-6h-18" style="stroke: black; stroke-width: 1;"></path>
       <path d="M937,151h18m-18,-6h18m-36,-6h36m-18,-6h18m-18,-6h18m-18,-7h18m-18,-6h18m-36,-6h36m-18,-6h18m-18,-6h18m-18,-6h18m-18,-6h18m-36,-6h36m-18,-7h18m-18,-6h18m-18,-6h18m-18,-6h18m-36,-6h36m-18,-6h18m-18,-6h18m-18,-7h18m-18,-6h18m-36,-6h36m-18,-6h18m-18,-6h18" style="stroke: black; stroke-width: 1;"></path>
       <g font-family="Arial" font-size="20" space="preserve">
        <text fill="black" text-anchor="end" dy=".4em" transform="translate(-1,139)">
         -1
        </text>
        <text fill="black" text-anchor="end" dy=".4em" transform="translate(-1,108)">
         -0.5
        </text>
        <text fill="black" text-anchor="end" dy=".4em" transform="translate(-1,78)">
         0
        </text>
        <text fill="black" text-anchor="end" dy=".4em" transform="translate(-1,47)">
         0.5
        </text>
        <text fill="black" text-anchor="end" dy=".4em" transform="translate(-1,16)">
         1
        </text>
       </g>
       <g font-family="Arial" font-size="20" space="preserve" transform="translate(-58,0)">
        <text fill="black" text-anchor="end" dy=".4em" transform=" rotate(270)">
         ratio
        </text>
       </g>
      </g>
     </g>
    </g>
    <g>
     <line x1="119" y1="28" x2="1075" y2="28" style="stroke: black; stroke-width: 1; stroke-dasharray: 3,3;"></line>
    </g>
    <g>
     <line x1="119" y1="89" x2="1075" y2="89" style="stroke: black; stroke-width: 1; stroke-dasharray: 3,3;"></line>
    </g>
    <g>
     <line x1="119" y1="150" x2="1075" y2="150" style="stroke: black; stroke-width: 1; stroke-dasharray: 3,3;"></line>
    </g>
   </g>
  </svg>
  <svg viewBox="0 0 1194 796" preserveAspectRatio="none" x="3" y="2" width="1194" height="796" display="none">
   <rect x="0" y="0" width="1194" height="796" style="fill: white; opacity: 0;"></rect>
  </svg>
 </g>
</svg>
